covers/svg/cover-quake.svg

<svg xmlns="http://www.w3.org/2000/svg" width="1280" height="640" fill="none"><path fill="#EDEFF3" d="M0 0h1280v640H0z"/><path fill="#1A1A1A" d="M1139.65 596h-9.85v-1.699l6.55-9.153h-6.15v-2.121h9.26v1.875l-6.42 8.977h6.61zm7.97-13.219c1.16 0 2.15.239 2.98.715.83.477 1.46 1.152 1.91 2.027.44.875.67 1.922.67 3.141v1.477h-8.66c.03 1.257.36 2.226 1 2.906.65.68 1.56 1.019 2.72 1.019.83 0 1.57-.078 2.23-.234.66-.164 1.35-.402 2.05-.715v2.238q-.975.458-1.98.668c-.67.141-1.48.211-2.42.211q-1.905 0-3.36-.738c-.96-.5-1.71-1.242-2.26-2.226q-.81-1.478-.81-3.668c0-1.454.25-2.688.74-3.704q.735-1.523 2.07-2.32t3.12-.797m0 2.074c-.87 0-1.57.282-2.11.844-.53.563-.84 1.387-.94 2.473h5.91q-.015-.973-.33-1.723c-.2-.5-.51-.89-.94-1.172q-.615-.422-1.59-.422m15.24-2.074c.21 0 .45.012.71.035s.48.055.67.094l-.26 2.578a3.4 3.4 0 0 0-.61-.105 6 6 0 0 0-.63-.035q-.735 0-1.41.246c-.44.156-.84.398-1.18.726-.35.321-.61.723-.81 1.207s-.29 1.047-.29 1.688V596h-2.77v-12.973h2.16l.37 2.285h.13q.39-.69.96-1.265c.39-.383.82-.688 1.31-.914a3.8 3.8 0 0 1 1.65-.352m15.26 6.703q0 1.618-.42 2.871-.42 1.254-1.23 2.122a5.4 5.4 0 0 1-1.94 1.312c-.76.297-1.62.445-2.57.445-.89 0-1.71-.148-2.45-.445a5.5 5.5 0 0 1-1.93-1.312q-.81-.868-1.26-2.122c-.29-.835-.44-1.793-.44-2.871 0-1.429.24-2.64.74-3.632q.75-1.5 2.13-2.286c.92-.523 2.02-.785 3.29-.785 1.2 0 2.25.262 3.17.785.91.524 1.63 1.286 2.14 2.286.52 1 .77 2.21.77 3.632m-9.41 0c0 .946.12 1.754.34 2.426q.36 1.008 1.08 1.547c.49.352 1.11.527 1.88.527.76 0 1.39-.175 1.87-.527.49-.359.84-.875 1.07-1.547s.34-1.48.34-2.426c0-.945-.11-1.746-.34-2.402-.23-.664-.58-1.168-1.07-1.512-.48-.351-1.11-.527-1.88-.527-1.14 0-1.98.383-2.5 1.148-.52.766-.79 1.864-.79 3.293m19.24-6.703c1.53 0 2.77.563 3.7 1.688.94 1.125 1.4 2.797 1.4 5.015 0 1.469-.21 2.707-.65 3.715-.43 1-1.04 1.758-1.82 2.274q-1.155.76-2.7.761c-.66 0-1.23-.086-1.72-.257a4.4 4.4 0 0 1-1.24-.668 5 5 0 0 1-.87-.914h-.16c.04.312.07.66.11 1.043.04.374.05.718.05 1.031v5.285h-2.76v-18.727h2.25l.39 1.793h.12c.25-.367.54-.707.88-1.019.36-.313.78-.559 1.27-.739.5-.187 1.08-.281 1.75-.281m-.74 2.25q-1.14 0-1.83.457c-.45.297-.79.746-1 1.348q-.3.902-.33 2.262v.386q0 1.442.3 2.45.3.995.99 1.523c.47.344 1.11.516 1.9.516.67 0 1.23-.184 1.67-.551q.66-.551.99-1.57t.33-2.403q0-2.097-.75-3.258c-.49-.773-1.25-1.16-2.27-1.16m17.75 7.266c0 .851-.21 1.57-.62 2.156s-1.02 1.031-1.82 1.336c-.79.297-1.75.445-2.9.445-.91 0-1.69-.066-2.35-.199a8 8 0 0 1-1.84-.586v-2.379c.62.289 1.31.539 2.08.75q1.155.317 2.19.317c.91 0 1.56-.141 1.96-.422.39-.289.59-.672.59-1.149q0-.421-.24-.75c-.16-.226-.46-.457-.89-.691-.43-.242-1.07-.531-1.9-.867-.82-.328-1.51-.656-2.08-.985-.56-.328-.98-.722-1.27-1.183-.29-.469-.44-1.067-.44-1.793 0-1.149.46-2.02 1.36-2.613.92-.602 2.12-.903 3.62-.903q1.2 0 2.25.246c.72.157 1.41.387 2.09.692l-.87 2.074q-.87-.387-1.77-.633a6.3 6.3 0 0 0-1.79-.258c-.71 0-1.25.11-1.63.328-.37.219-.55.532-.55.938q0 .457.27.773.27.317.93.633c.44.211 1.06.473 1.85.785.77.297 1.44.61 2 .938.57.32 1.01.715 1.31 1.183.31.469.46 1.075.46 1.817m2.58 2.25c0-.641.16-1.09.49-1.348.34-.265.74-.398 1.22-.398s.88.133 1.22.398q.51.387.51 1.348 0 .938-.51 1.359c-.34.274-.74.41-1.22.41s-.88-.136-1.22-.41c-.33-.281-.49-.734-.49-1.359m9.74-11.52V596h-2.76v-12.973zm-1.36-4.968c.42 0 .78.113 1.09.339s.47.618.47 1.172c0 .547-.16.938-.47 1.172-.31.227-.67.34-1.09.34-.44 0-.81-.113-1.12-.34-.29-.234-.44-.625-.44-1.172 0-.554.15-.945.44-1.172.31-.226.68-.339 1.12-.339m16.79 11.425q0 1.618-.42 2.871-.42 1.254-1.23 2.122a5.4 5.4 0 0 1-1.95 1.312c-.75.297-1.61.445-2.56.445-.89 0-1.71-.148-2.45-.445a5.7 5.7 0 0 1-1.94-1.312c-.54-.579-.95-1.286-1.25-2.122q-.45-1.253-.45-2.871c0-1.429.25-2.64.74-3.632.5-1 1.21-1.762 2.14-2.286.92-.523 2.02-.785 3.29-.785 1.19 0 2.25.262 3.16.785.92.524 1.63 1.286 2.15 2.286.51 1 .77 2.21.77 3.632m-9.41 0c0 .946.11 1.754.34 2.426.24.672.59 1.188 1.08 1.547.48.352 1.11.527 1.87.527.77 0 1.39-.175 1.88-.527.48-.359.84-.875 1.07-1.547.22-.672.34-1.48.34-2.426 0-.945-.12-1.746-.34-2.402-.23-.664-.59-1.168-1.07-1.512-.49-.351-1.11-.527-1.89-.527q-1.71 0-2.49 1.148c-.53.766-.79 1.864-.79 3.293"/><path fill="#323232" d="m326.311 179.457-96.358 36.828a22.43 22.43 0 0 0-14.238 20.909v92.714l44.283-25.449v-52.131l74.217-28.475V178c-2.701.006-5.379.5-7.904 1.457M260.783 387.085l73.432-42.322v-51.121L220.76 359.057a10.21 10.21 0 0 0-5.045 8.745v34.249a22.42 22.42 0 0 0 14.238 20.684l96.358 36.828a22.4 22.4 0 0 0 7.904 1.458v-45.853z"/><path fill="#1A1A1A" d="M448.006 279.066a9.36 9.36 0 0 0 4.708-8.24v-33.632a22.427 22.427 0 0 0-14.238-20.909l-96.414-36.828a22.4 22.4 0 0 0-7.847-1.457v45.853l72.871 28.027-72.871 41.985v51.122zM342.062 459.563l96.414-36.828a22.42 22.42 0 0 0 14.238-20.684v-93.667l-44.283 25.561v52.859l-74.216 28.364v45.853a22.4 22.4 0 0 0 7.847-1.458"/><path fill="#939393" d="m658.715 295.553-6.043-6.043-23.957 23.957-23.957-23.957-6.043 6.043 23.957 23.957-23.957 23.957 6.043 6.043 23.957-23.957 23.957 23.957 6.043-6.043-23.957-23.957z"/><path fill="#E30613" d="M932.468 192.966h1.757c1.397 14.53 2.487 29.07 3.467 43.633l.466 6.857q.483 7.128.961 14.257.55 8.183 1.111 16.365.545 7.963 1.079 15.926.225 3.35.456 6.7c1.323 19.29 1.075 37.803-.32 57.08q-.332 4.619-.657 9.237-.548 7.736-1.106 15.471-.642 8.93-1.273 17.861-.61 8.63-1.227 17.26-.261 3.658-.52 7.317a6885 6885 0 0 1-.732 10.196l-.215 3.052-.205 2.806-.174 2.43c-.233 2.256-.629 4.426-1.111 6.641h-1.757q-1.53-20.467-3.048-40.934-.706-9.507-1.416-19.013-.62-8.301-1.235-16.602-.323-4.381-.653-8.763c-.477-6.36-.937-12.721-1.366-19.085a874 874 0 0 0-.38-5.367c-.998-13.7-.26-27.103.789-40.785.23-3.029.446-6.059.664-9.088a6130 6130 0 0 1 1.267-17.162c.532-7.103 1.05-14.206 1.567-21.31l.551-7.544.135-1.852q.455-6.216.918-12.432c.821-11.047 1.616-22.091 2.207-33.152M843.711 265.026v1.757l-1.513.468c-16.898 4.35-16.898 4.35-30.123 14.472-.513 2.159-.513 2.159 0 4.394 23.019 20.868 75.392 18.32 104.575 21.09.884 2.652.938 4.175.823 6.929l-.104 2.683-.13 2.943-.125 3.101a4934 4934 0 0 1-.43 10.196q-.148 3.55-.293 7.099-.308 7.459-.625 14.918-.404 9.512-.795 19.025-.341 8.23-.685 16.461l-.218 5.232c-.492 11.782-.989 23.557-1.812 35.322h-1.758a84922 84922 0 0 1-3.093-38.913l-1.437-18.069q-.694-8.717-1.384-17.435l-.53-6.654q-.372-4.657-.739-9.316l-.224-2.781c-.321-4.107-.594-8.163-.502-12.286l-1.556-.278c-77.736-14.129-77.736-14.129-94.341-34.379-1.423-2.286-1.672-3.356-1.977-6.152 2.618-6.783 8.467-10.098 14.884-12.962 17.286-6.865 17.286-6.865 24.112-6.865M1025.62 265.026c5.2.5 9.83 1.559 14.77 3.24 1.04.35 1.04.35 2.09.707 8.8 3.072 16.52 6.584 21.81 14.507-.08 4.063-.81 7.014-3.64 10.027-19.43 16.551-48.56 21.895-72.709 27.761l-2.145.521q-3.042.735-6.087 1.456l-1.814.435c-3.702.865-7.39 1.463-11.155 1.982l-.135 3.115c-.535 11.76-1.401 23.477-2.367 35.208l-.469 5.776q-.61 7.507-1.227 15.013-.629 7.697-1.255 15.395-1.223 15.035-2.456 30.068h-1.757l-1.33-30.188-.617-14.024q-.641-14.51-1.273-29.019-.297-6.797-.603-13.594c-.393-8.852-.7-17.675-.626-26.538l.029-5.173.026-4.494 3.412-.333c53.808-1.507 53.808-1.507 101.158-20.757.27-2.752.29-3.742-.87-6.152-7.56-7.799-20.76-10.108-30.76-13.182z"/></svg>

<svg width="1280" height="640" viewBox="0 0 1280 640" fill="none" xmlns="http://www.w3.org/2000/svg">
<rect width="1280" height="640" fill="#EDEFF3"/>
<path d="M1139.65 596H1129.8V594.301L1136.35 585.148H1130.2V583.027H1139.46V584.902L1133.04 593.879H1139.65V596ZM1147.62 582.781C1148.78 582.781 1149.77 583.02 1150.6 583.496C1151.43 583.973 1152.06 584.648 1152.51 585.523C1152.95 586.398 1153.18 587.445 1153.18 588.664V590.141H1144.52C1144.55 591.398 1144.88 592.367 1145.52 593.047C1146.17 593.727 1147.08 594.066 1148.24 594.066C1149.07 594.066 1149.81 593.988 1150.47 593.832C1151.13 593.668 1151.82 593.43 1152.52 593.117V595.355C1151.87 595.66 1151.21 595.883 1150.54 596.023C1149.87 596.164 1149.06 596.234 1148.12 596.234C1146.85 596.234 1145.73 595.988 1144.76 595.496C1143.8 594.996 1143.05 594.254 1142.5 593.27C1141.96 592.285 1141.69 591.062 1141.69 589.602C1141.69 588.148 1141.94 586.914 1142.43 585.898C1142.92 584.883 1143.61 584.109 1144.5 583.578C1145.39 583.047 1146.43 582.781 1147.62 582.781ZM1147.62 584.855C1146.75 584.855 1146.05 585.137 1145.51 585.699C1144.98 586.262 1144.67 587.086 1144.57 588.172H1150.48C1150.47 587.523 1150.36 586.949 1150.15 586.449C1149.95 585.949 1149.64 585.559 1149.21 585.277C1148.8 584.996 1148.27 584.855 1147.62 584.855ZM1162.86 582.781C1163.07 582.781 1163.31 582.793 1163.57 582.816C1163.83 582.84 1164.05 582.871 1164.24 582.91L1163.98 585.488C1163.82 585.441 1163.61 585.406 1163.37 585.383C1163.14 585.359 1162.93 585.348 1162.74 585.348C1162.25 585.348 1161.78 585.43 1161.33 585.594C1160.89 585.75 1160.49 585.992 1160.15 586.32C1159.8 586.641 1159.54 587.043 1159.34 587.527C1159.14 588.012 1159.05 588.574 1159.05 589.215V596H1156.28V583.027H1158.44L1158.81 585.312H1158.94C1159.2 584.852 1159.52 584.43 1159.9 584.047C1160.29 583.664 1160.72 583.359 1161.21 583.133C1161.71 582.898 1162.26 582.781 1162.86 582.781ZM1178.12 589.484C1178.12 590.562 1177.98 591.52 1177.7 592.355C1177.42 593.191 1177.01 593.898 1176.47 594.477C1175.93 595.047 1175.29 595.484 1174.53 595.789C1173.77 596.086 1172.91 596.234 1171.96 596.234C1171.07 596.234 1170.25 596.086 1169.51 595.789C1168.77 595.484 1168.12 595.047 1167.58 594.477C1167.04 593.898 1166.62 593.191 1166.32 592.355C1166.03 591.52 1165.88 590.562 1165.88 589.484C1165.88 588.055 1166.12 586.844 1166.62 585.852C1167.12 584.852 1167.83 584.09 1168.75 583.566C1169.67 583.043 1170.77 582.781 1172.04 582.781C1173.24 582.781 1174.29 583.043 1175.21 583.566C1176.12 584.09 1176.84 584.852 1177.35 585.852C1177.87 586.852 1178.12 588.062 1178.12 589.484ZM1168.71 589.484C1168.71 590.43 1168.83 591.238 1169.05 591.91C1169.29 592.582 1169.65 593.098 1170.13 593.457C1170.62 593.809 1171.24 593.984 1172.01 593.984C1172.77 593.984 1173.4 593.809 1173.88 593.457C1174.37 593.098 1174.72 592.582 1174.95 591.91C1175.18 591.238 1175.29 590.43 1175.29 589.484C1175.29 588.539 1175.18 587.738 1174.95 587.082C1174.72 586.418 1174.37 585.914 1173.88 585.57C1173.4 585.219 1172.77 585.043 1172 585.043C1170.86 585.043 1170.02 585.426 1169.5 586.191C1168.98 586.957 1168.71 588.055 1168.71 589.484ZM1187.95 582.781C1189.48 582.781 1190.72 583.344 1191.65 584.469C1192.59 585.594 1193.05 587.266 1193.05 589.484C1193.05 590.953 1192.84 592.191 1192.4 593.199C1191.97 594.199 1191.36 594.957 1190.58 595.473C1189.81 595.98 1188.91 596.234 1187.88 596.234C1187.22 596.234 1186.65 596.148 1186.16 595.977C1185.68 595.805 1185.27 595.582 1184.92 595.309C1184.58 595.027 1184.29 594.723 1184.05 594.395H1183.89C1183.93 594.707 1183.96 595.055 1184 595.438C1184.04 595.812 1184.05 596.156 1184.05 596.469V601.754H1181.29V583.027H1183.54L1183.93 584.82H1184.05C1184.3 584.453 1184.59 584.113 1184.93 583.801C1185.29 583.488 1185.71 583.242 1186.2 583.062C1186.7 582.875 1187.28 582.781 1187.95 582.781ZM1187.21 585.031C1186.45 585.031 1185.84 585.184 1185.38 585.488C1184.93 585.785 1184.59 586.234 1184.38 586.836C1184.18 587.438 1184.07 588.191 1184.05 589.098V589.484C1184.05 590.445 1184.15 591.262 1184.35 591.934C1184.55 592.598 1184.88 593.105 1185.34 593.457C1185.81 593.801 1186.45 593.973 1187.24 593.973C1187.91 593.973 1188.47 593.789 1188.91 593.422C1189.35 593.055 1189.68 592.531 1189.9 591.852C1190.12 591.172 1190.23 590.371 1190.23 589.449C1190.23 588.051 1189.98 586.965 1189.48 586.191C1188.99 585.418 1188.23 585.031 1187.21 585.031ZM1204.96 592.297C1204.96 593.148 1204.75 593.867 1204.34 594.453C1203.93 595.039 1203.32 595.484 1202.52 595.789C1201.73 596.086 1200.77 596.234 1199.62 596.234C1198.71 596.234 1197.93 596.168 1197.27 596.035C1196.62 595.91 1196.01 595.715 1195.43 595.449V593.07C1196.05 593.359 1196.74 593.609 1197.51 593.82C1198.28 594.031 1199.01 594.137 1199.7 594.137C1200.61 594.137 1201.26 593.996 1201.66 593.715C1202.05 593.426 1202.25 593.043 1202.25 592.566C1202.25 592.285 1202.17 592.035 1202.01 591.816C1201.85 591.59 1201.55 591.359 1201.12 591.125C1200.69 590.883 1200.05 590.594 1199.22 590.258C1198.4 589.93 1197.71 589.602 1197.14 589.273C1196.58 588.945 1196.16 588.551 1195.87 588.09C1195.58 587.621 1195.43 587.023 1195.43 586.297C1195.43 585.148 1195.89 584.277 1196.79 583.684C1197.71 583.082 1198.91 582.781 1200.41 582.781C1201.21 582.781 1201.96 582.863 1202.66 583.027C1203.38 583.184 1204.07 583.414 1204.75 583.719L1203.88 585.793C1203.3 585.535 1202.71 585.324 1202.11 585.16C1201.53 584.988 1200.93 584.902 1200.32 584.902C1199.61 584.902 1199.07 585.012 1198.69 585.23C1198.32 585.449 1198.14 585.762 1198.14 586.168C1198.14 586.473 1198.23 586.73 1198.41 586.941C1198.59 587.152 1198.9 587.363 1199.34 587.574C1199.78 587.785 1200.4 588.047 1201.19 588.359C1201.96 588.656 1202.63 588.969 1203.19 589.297C1203.76 589.617 1204.2 590.012 1204.5 590.48C1204.81 590.949 1204.96 591.555 1204.96 592.297ZM1207.54 594.547C1207.54 593.906 1207.7 593.457 1208.03 593.199C1208.37 592.934 1208.77 592.801 1209.25 592.801C1209.73 592.801 1210.13 592.934 1210.47 593.199C1210.81 593.457 1210.98 593.906 1210.98 594.547C1210.98 595.172 1210.81 595.625 1210.47 595.906C1210.13 596.18 1209.73 596.316 1209.25 596.316C1208.77 596.316 1208.37 596.18 1208.03 595.906C1207.7 595.625 1207.54 595.172 1207.54 594.547ZM1217.28 583.027V596H1214.52V583.027H1217.28ZM1215.92 578.059C1216.34 578.059 1216.7 578.172 1217.01 578.398C1217.32 578.625 1217.48 579.016 1217.48 579.57C1217.48 580.117 1217.32 580.508 1217.01 580.742C1216.7 580.969 1216.34 581.082 1215.92 581.082C1215.48 581.082 1215.11 580.969 1214.8 580.742C1214.51 580.508 1214.36 580.117 1214.36 579.57C1214.36 579.016 1214.51 578.625 1214.8 578.398C1215.11 578.172 1215.48 578.059 1215.92 578.059ZM1232.71 589.484C1232.71 590.562 1232.57 591.52 1232.29 592.355C1232.01 593.191 1231.6 593.898 1231.06 594.477C1230.52 595.047 1229.87 595.484 1229.11 595.789C1228.36 596.086 1227.5 596.234 1226.55 596.234C1225.66 596.234 1224.84 596.086 1224.1 595.789C1223.36 595.484 1222.71 595.047 1222.16 594.477C1221.62 593.898 1221.21 593.191 1220.91 592.355C1220.61 591.52 1220.46 590.562 1220.46 589.484C1220.46 588.055 1220.71 586.844 1221.2 585.852C1221.7 584.852 1222.41 584.09 1223.34 583.566C1224.26 583.043 1225.36 582.781 1226.63 582.781C1227.82 582.781 1228.88 583.043 1229.79 583.566C1230.71 584.09 1231.42 584.852 1231.94 585.852C1232.45 586.852 1232.71 588.062 1232.71 589.484ZM1223.3 589.484C1223.3 590.43 1223.41 591.238 1223.64 591.91C1223.88 592.582 1224.23 593.098 1224.72 593.457C1225.2 593.809 1225.83 593.984 1226.59 593.984C1227.36 593.984 1227.98 593.809 1228.47 593.457C1228.95 593.098 1229.31 592.582 1229.54 591.91C1229.76 591.238 1229.88 590.43 1229.88 589.484C1229.88 588.539 1229.76 587.738 1229.54 587.082C1229.31 586.418 1228.95 585.914 1228.47 585.57C1227.98 585.219 1227.36 585.043 1226.58 585.043C1225.44 585.043 1224.61 585.426 1224.09 586.191C1223.56 586.957 1223.3 588.055 1223.3 589.484Z" fill="#1A1A1A"/>
<path d="M326.311 179.457L229.953 216.285C225.751 217.933 222.144 220.81 219.604 224.54C217.064 228.27 215.708 232.681 215.715 237.194V329.908L259.998 304.459V252.328L334.215 223.853V178C331.514 178.006 328.836 178.5 326.311 179.457Z" fill="#323232"/>
<path d="M260.783 387.085L334.215 344.763V293.642L220.76 359.057C219.233 359.952 217.965 361.229 217.08 362.762C216.196 364.295 215.725 366.032 215.715 367.802V402.051C215.753 406.526 217.13 410.887 219.667 414.573C222.204 418.26 225.787 421.102 229.953 422.735L326.311 459.563C328.836 460.521 331.514 461.015 334.215 461.021V415.168L260.783 387.085Z" fill="#323232"/>
<path d="M448.006 279.066C449.454 278.237 450.654 277.036 451.482 275.587C452.31 274.139 452.735 272.495 452.714 270.826V237.194C452.721 232.68 451.366 228.27 448.825 224.54C446.285 220.81 442.678 217.933 438.476 216.285L342.062 179.457C339.555 178.506 336.897 178.013 334.215 178V223.853L407.086 251.88L334.215 293.865V344.987L448.006 279.066Z" fill="#1A1A1A"/>
<path d="M342.062 459.563L438.476 422.735C442.643 421.102 446.225 418.259 448.763 414.573C451.3 410.887 452.676 406.526 452.714 402.051V308.384L408.431 333.945V386.804L334.215 415.168V461.021C336.897 461.008 339.555 460.514 342.062 459.563Z" fill="#1A1A1A"/>
<path d="M658.715 295.553L652.672 289.51L628.715 313.467L604.758 289.51L598.715 295.553L622.672 319.51L598.715 343.467L604.758 349.51L628.715 325.553L652.672 349.51L658.715 343.467L634.758 319.51L658.715 295.553Z" fill="#939393"/>
<path d="M932.468 192.966C933.048 192.966 933.628 192.966 934.225 192.966C935.622 207.496 936.712 222.036 937.692 236.599C937.847 238.885 938.003 241.17 938.158 243.456C938.48 248.208 938.8 252.96 939.119 257.713C939.485 263.168 939.857 268.623 940.23 274.078C940.594 279.387 940.952 284.695 941.309 290.004C941.459 292.238 941.611 294.471 941.765 296.704C943.088 315.994 942.84 334.507 941.445 353.784C941.223 356.863 941.006 359.942 940.788 363.021C940.423 368.178 940.054 373.335 939.682 378.492C939.254 384.445 938.83 390.399 938.409 396.353C938.003 402.107 937.593 407.86 937.182 413.613C937.008 416.052 936.834 418.491 936.662 420.93C936.421 424.329 936.176 427.728 935.93 431.126C935.859 432.133 935.788 433.14 935.715 434.178C935.648 435.104 935.58 436.03 935.51 436.984C935.453 437.786 935.395 438.588 935.336 439.414C935.103 441.67 934.707 443.84 934.225 446.055C933.645 446.055 933.065 446.055 932.468 446.055C931.448 432.41 930.432 418.766 929.42 405.121C928.949 398.783 928.478 392.445 928.004 386.108C927.59 380.574 927.179 375.04 926.769 369.506C926.553 366.585 926.336 363.664 926.116 360.743C925.639 354.383 925.179 348.022 924.75 341.658C924.629 339.869 924.502 338.079 924.37 336.291C923.372 322.591 924.11 309.188 925.159 295.506C925.389 292.477 925.605 289.447 925.823 286.418C926.236 280.696 926.661 274.976 927.09 269.256C927.622 262.153 928.14 255.05 928.657 247.946C928.841 245.431 929.024 242.917 929.208 240.402C929.252 239.791 929.297 239.179 929.343 238.55C929.646 234.406 929.952 230.262 930.261 226.118C931.082 215.071 931.877 204.027 932.468 192.966Z" fill="#E30613"/>
<path d="M843.711 265.026C843.711 265.606 843.711 266.186 843.711 266.783C843.212 266.938 842.712 267.092 842.198 267.251C825.3 271.601 825.3 271.601 812.075 281.723C811.562 283.882 811.562 283.882 812.075 286.117C835.094 306.985 887.467 304.437 916.65 307.207C917.534 309.859 917.588 311.382 917.473 314.136C917.439 315.022 917.404 315.907 917.369 316.819C917.326 317.79 917.283 318.761 917.239 319.762C917.197 320.785 917.156 321.809 917.114 322.863C916.975 326.262 916.83 329.661 916.684 333.059C916.585 335.426 916.488 337.792 916.391 340.158C916.186 345.131 915.977 350.103 915.766 355.076C915.496 361.417 915.233 367.759 914.971 374.101C914.744 379.588 914.515 385.075 914.286 390.562C914.213 392.306 914.141 394.05 914.068 395.794C913.576 407.576 913.079 419.351 912.256 431.116C911.676 431.116 911.096 431.116 910.498 431.116C909.464 418.145 908.433 405.174 907.405 392.203C906.927 386.18 906.448 380.157 905.968 374.134C905.505 368.323 905.044 362.511 904.584 356.699C904.408 354.481 904.231 352.263 904.054 350.045C903.806 346.94 903.56 343.835 903.315 340.729C903.241 339.812 903.167 338.894 903.091 337.948C902.77 333.841 902.497 329.785 902.589 325.662C902.075 325.57 901.562 325.478 901.033 325.384C823.297 311.255 823.297 311.255 806.692 291.005C805.269 288.719 805.02 287.649 804.715 284.853C807.333 278.07 813.182 274.755 819.599 271.891C836.885 265.026 836.885 265.026 843.711 265.026Z" fill="#E30613"/>
<path d="M1025.62 265.026C1030.82 265.526 1035.45 266.585 1040.39 268.266C1041.43 268.616 1041.43 268.616 1042.48 268.973C1051.28 272.045 1059 275.557 1064.29 283.48C1064.21 287.543 1063.48 290.494 1060.65 293.507C1041.22 310.058 1012.09 315.402 987.941 321.268C987.233 321.44 986.525 321.612 985.796 321.789C983.768 322.279 981.739 322.764 979.709 323.245C979.111 323.388 978.512 323.532 977.895 323.68C974.193 324.545 970.505 325.143 966.74 325.662C966.696 326.69 966.651 327.718 966.605 328.777C966.07 340.537 965.204 352.254 964.238 363.985C964.081 365.91 963.925 367.836 963.769 369.761C963.362 374.766 962.953 379.77 962.542 384.774C962.122 389.906 961.705 395.037 961.287 400.169C960.472 410.192 959.653 420.215 958.831 430.237C958.251 430.237 957.671 430.237 957.074 430.237C956.63 420.174 956.187 410.112 955.744 400.049C955.539 395.375 955.333 390.7 955.127 386.025C954.7 376.352 954.275 366.679 953.854 357.006C953.656 352.475 953.455 347.943 953.251 343.412C952.858 334.56 952.551 325.737 952.625 316.874C952.635 315.15 952.645 313.425 952.654 311.701C952.663 310.203 952.671 308.705 952.68 307.207C953.806 307.097 954.932 306.987 956.092 306.874C1009.9 305.367 1009.9 305.367 1057.25 286.117C1057.52 283.365 1057.54 282.375 1056.38 279.965C1048.82 272.166 1035.62 269.857 1025.62 266.783C1025.62 266.203 1025.62 265.623 1025.62 265.026Z" fill="#E30613"/>
</svg>
